!!!SOCIAL_FUNCTION: songs of the kitsita society
!!!SOCIAL_FUNCTION2: Kitsita Society
!!!PDT:	1929
!!!LING_GROUP: Caddoan
!!!LANG: Non-Tone
!!!REG: Oklahoma
!!!COM: Anon.
!!!OTL: The Lance Dancers
!!!ODT: <1920//
!!!MPN: Laduda desadu [He does everything as a chief, John Luwak]
!!!MLC: Pawnee, Oklahoma, United States of America
!! Song was recorded either 1919 or 1920.
!!!AGN: monody
!!!AMT: irregular
!!!RWG: Transcribed pitches, durations, and meters are only approximate.
!! Drum Tempo:  MM144
!! Drum-rhythm: (4 4 4 4 4 4)
**kern	**silbe	**words	**words	**recip
*ICvox	*LPawnee	*LPawnee	*LEnglish	*ICidio
*Imale	*	*	*	*Itom
*clefF4	*	*	*	*
*k[f#c#g#d#a#]	*	*	*	*
*M5/4	*M5/4	*M5/4	*M5/4	*M5/4
*MM144	*MM144	*MM144	*MM144	*MM144
=1-	=1-	=1-	=1-	=1-
8.f#	Ru	Ru	There	4
16f#	i-	ira	them	.
4f#	-ra	.	.	4
8.f#	rax	rax	have	4
16e	ru	ru	there	.
4e	ri-	riwi	walking	4
4e	-wi	.	.	4
=2	=2	=2	=2	=2
8.f#	ru	ru	there	4
16f#	i-	ira	them	.
4f#	-ra	.	.	4
8.f#	rax	rax	have	4
16f#	ru	ru	there	.
(8.e	ri-	riwi	walking	4
16f#)	|	.	.	.
4c#	-wi	.	.	4
=3	=3	=3	=3	=3
8.f#	ru	ru	there	4
16B	i-	ira	them	.
4B	-ra	.	.	4
8.B	rax	rax	have	4
16d#	ru	ru	there	.
4B	ri-	riwi	walking	4
4B	-wi	.	.	4
*M3/4	*M3/4	*M3/4	*M3/4	*M3/4
=4	=4	=4	=4	=4
8g#	tsa-	tsapat	woman	4
8f#	-pat	.	.	.
8f#	ti	ti	she	4
8e	wa-	waku	said	.
4c#	-ku	.	.	4
*M2/4	*M2/4	*M2/4	*M2/4	*M2/4
=5	=5	=5	=5	=5
8g#	a	.	.	4
8f#	ku	ku	there	.
8f#	ka-	kaki	no	4
8e	-ki	.	.	.
=6	=6	=6	=6	=6
8f#	ra	ra	have	4
8c#	riks	riks	not real	.
4B	a	.	.	4
*M5/4	*M5/4	*M5/4	*M5/4	*M5/4
=7	=7	=7	=7	=7
8.g#	ki-	kitsita	lance dancers	4
16f#	-tsi-	.	.	.
4c#	-ta	.	.	4
8.c#	rax	rax	have	4
16c#	ru	ru	there	.
4B	ri-	riwi	walking	4
4B	-wi	.	.	4
=8	=8	=8	=8	=8
8.f#	ru	ru	there	4
16c#	i-	ira	them	.
4c#	-ra	.	.	4
8.c#	rax	rax	have	4
16c#	ru	ru	there	.
4B	ri-	riwi	walking	4
4B	-wi	.	.	4
=9	=9	=9	=9	=9
8.d#	ru	ru	there	4
16F#	i-	ira	them	.
4F#	-ra	.	.	4
8.F#	rax	rax	have	4
16E	ru	ru	there	.
4E	ri-	riwi	walking	4
4E	-wi	.	.	4
=10	=10	=10	=10	=10
8.G#	ru	ru	there	4
16F#	i-	ira	them	.
4F#	-ra	.	.	4
8.F#	rax	rax	have	4
16F#	ru	ru	there	.
(8.E	ri-	riwi	walking	4
16f#)	|	.	.	.
4C#	-wi	.	.	4
=11	=11	=11	=11	=11
8.BB	ru	ru	there	4
16BB	i-	ira	them	.
4BB	-ra	.	.	4
8.BB	rax	rax	have	4
16BB	ru	ru	there	.
4BB	ri-	riwi	walking	4
4BB	-wi	.	.	4
*M3/4	*M3/4	*M3/4	*M3/4	*M3/4
=12	=12	=12	=12	=12
8G#	tsa-	tsapat	woman	4
8F#	-pat	.	.	.
8F#	ti	ti	she	4
8E	wa-	waku	said	.
4C#	-ku	.	.	4
*M2/4	*M2/4	*M2/4	*M2/4	*M2/4
=13	=13	=13	=13	=13
8G#	a	.	.	4
8F#	ku	ku	there	.
8F#	ka-	kaki	no	4
8E	-ki	.	.	.
=14	=14	=14	=14	=14
8F#	ra	ra	have	4
8C#	riks	riks	not real	.
4BB	a	.	.	4
*M5/4	*M5/4	*M5/4	*M5/4	*M5/4
=15	=15	=15	=15	=15
8.G#	ki-	kitsita	lance dancers	4
16F#	-tsi-	.	.	.
4C#	-ta	.	.	4
8.C#	rax	rax	have	4
16C#	ru	ru	there	.
4BB	ri-	riwi	walking	4
4BB	-wi	.	.	4
=16	=16	=16	=16	=16
8.C#	ru	ru	there	4
16C#	i-	ira	them	.
4C#	-ra	.	.	4
8.C#	rax	rax	have	4
16BB	ru	ru	there	.
4BB	ri-	riwi	walking	4
4BB	-wi	.	.	4
=17	=17	=17	=17	=17
[2.D#	|	.	.	4
.	.	.	.	4
.	.	.	.	4
2D#]	|	.	.	4
.	.	.	.	4
==	==	==	==	==
*-	*-	*-	*-	*-
!!!HAO: [no description]
!!!HTX: [no free translation]
!!!CNT: Pawnee
!!!TXO: Pawnee
!!!OCY: United States
!!!OCL: Frances Densmore
!!!YOR: Frances Densmore, "Pawnee Music"
!!!YOR: Bulletin 93, page 54, No. 26
!!!PPR: Smithsonian Institution, Bureau of American Ethnology
!!!PPR: Government Printing Office
!!!PDT: 1926
!!!PPP: Washington, DC, United States of America
!!!YEC: Electronic Copyright 2000 David Huron
!!!YER: September 2000
!!!YEN: United States of America
!!!ENC: David Huron
!!!RDT: September 3, 2000
!!!EEV: Release 1.0
!!!AIN: tom, vox
